!!!COM: Palestrina, Giovanni Perluigi da
!!!OPR: De Beata Marie Virginis (I)
!!!OTL: Credo
**kern	**kern	**kern	**kern	**kern
*ICvox	*ICvox	*ICvox	*ICvox	*ICvox
*Ibass	*Itenor	*Itenor	*Icalto	*Icant
!Bassus	!Tenor 2	!Tenor 1	!Altus	!Cantus
*clefF4	*clefGv2	*clefGv2	*clefG2	*clefG2
*k[]	*k[]	*k[]	*k[]	*k[]
*G:mix	*G:mix	*G:mix	*G:mix	*G:mix
*M4/2	*M4/2	*M4/2	*M4/2	*M4/2
=1	=1	=1	=1	=1
0r	0r	1r	1G	0r
.	.	1G	2.B	.
.	.	.	4c	.
=2	=2	=2	=2	=2
0r	0r	1B	2d	1r
.	.	.	2d	.
.	.	1c	1e	1g
=3	=3	=3	=3	=3
0r	1G	1d	4d	2.b
.	.	.	4c	.
.	.	.	4B	.
.	.	.	4A	4cc
.	1B	1d	2G	2dd
.	.	.	[2g	2dd
=4	=4	=4	=4	=4
0r	1c	1g	4g]	1ee
.	.	.	8a	.
.	.	.	8b	.
.	.	.	2cc	.
.	1d	2f	[1a	2dd
.	.	2d	.	[2ff
=5	=5	=5	=5	=5
0r	1d	1f	1a]	4ff]
.	.	.	.	4ee
.	.	.	.	1dd
.	1g	1e	2b	.
.	.	.	4a	2cc#
.	.	.	4g	.
=6	=6	=6	=6	=6
0r	2f	2d	2a	2dd
.	2d	2G	2b	1dd
.	2.f	2.d	2.a	.
.	.	.	.	[2ff
.	4e	4e	4g	.
=7	=7	=7	=7	=7
0r	2d	2f	4a	4ff]
.	.	.	4b	8ee
.	.	.	.	8dd
.	2c	1g	2cc	2ee
.	1d	.	1a	2dd
.	.	2f#	.	[2dd
=8	=8	=8	=8	=8
1G	1B	1g	2.g	2dd]
.	.	.	.	1g
.	.	.	4f	.
1C	1c	2r	1e	.
.	.	[2g	.	[2cc
=9	=9	=9	=9	=9
1.G	1d	2g]	0r	2cc]
.	.	2G	.	4b
.	.	.	.	4a
.	2G	2d	.	2b
2F	2A	2d	.	2a
=10	=10	=10	=10	=10
2E	1.c	4e	0r	2g
.	.	4d	.	.
1F	.	4c	.	4a
.	.	4B	.	4b
.	.	2A	.	4cc
.	.	.	.	4dd
2E	2c	[2c	.	4ee
.	.	.	.	4cc
=11	=11	=11	=11	=11
2D	1d	2c]	1r	2ff
2D	.	2B	.	2ff
1C	2r	1c	[1g	1ee
.	[2e	.	.	.
=12	=12	=12	=12	=12
0r	2e]	0r	2g]	1.cc
.	2f	.	2a	.
.	2e	.	2g	.
.	2d	.	2f	2dd
=13	=13	=13	=13	=13
0r	1e	0r	2.g	2cc
.	.	.	.	2b
.	.	.	8f	.
.	.	.	8g	.
.	1c	.	4a	2.cc
.	.	.	4g	.
.	.	.	[2g	.
.	.	.	.	4b
=14	=14	=14	=14	=14
1r	1d	2r	2g]	2a
.	.	1d	2f#	2a
2r	1G	.	1g	2b
[2G	.	2e	.	[2b
=15	=15	=15	=15	=15
2G]	0r	2d	2r	2b]
2A	.	2c	2e	2cc
2G	.	[1d	2g	2b
2F#	.	.	2a	2a
=16	=16	=16	=16	=16
1G	2r	2d]	1g	4b
.	.	.	.	4cc
.	1B	2d	.	4dd
.	.	.	.	4b
2.E	.	1G	[1g	1ee
.	2c	.	.	.
4F#	.	.	.	.
=17	=17	=17	=17	=17
2G	2B	2.d	2g]	2.dd
2F#	2A	.	2.a	.
.	.	4d	.	4cc
1G	1B	2d	.	2b
.	.	.	4g	.
.	.	2d	[2g	2g
=18	=18	=18	=18	=18
1.D	1.A	1.d	2g]	1.a
.	.	.	4f#	.
.	.	.	4e	.
.	.	.	2f#	.
2D	2A	2d	2f#	2a
=19	=19	=19	=19	=19
[0G	[0G	[0d	[0g	[0b
=20	=20	=20	=20	=20
0G]	0G]	0d]	0g]	0b]
!! Et ex Patre
*Ibass	*Itenor	*Itenor	*Icalto	*Icant
!Bassus	!Tenor 2	!Tenor 1	!Altus	!Cantus
*clefF4	*clefGv2	*clefGv2	*clefG2	*clefG2
*k[]	*k[]	*k[]	*k[]	*k[]
*G:mix	*G:mix	*G:mix	*G:mix	*G:mix
*M4/2	*M4/2	*M4/2	*M4/2	*M4/2
=21	=21	=21	=21	=21
0r	1.d	0r	0r	0r
.	2c	.	.	.
=22	=22	=22	=22	=22
1.G	1B	0r	0r	0r
.	1A	.	.	.
2F	.	.	.	.
=23	=23	=23	=23	=23
1E	1c	1r	0r	0r
1D	2.d	2r	.	.
.	.	[2d	.	.
.	8c	.	.	.
.	8B	.	.	.
=24	=24	=24	=24	=24
1F	4A	2d]	1r	0r
.	4G	.	.	.
.	2A	2c	.	.
1G	4G	1B	[1g	.
.	4A	.	.	.
.	4B	.	.	.
.	4c	.	.	.
=25	=25	=25	=25	=25
1D	1d	1A	2g]	0r
.	.	.	2f	.
1A	2r	1c	1e	.
.	2e	.	.	.
=26	=26	=26	=26	=26
0D	2.f	2.d	1d	1.dd
.	4g	8c	.	.
.	.	8B	.	.
.	1a	4A	1f	.
.	.	4G	.	.
.	.	2A	.	2cc
=27	=27	=27	=27	=27
0r	0d	4G	2g	1b
.	.	4A	.	.
.	.	4B	4d	.
.	.	4c	4e	.
.	.	4d	4f	1a
.	.	4e	4g	.
.	.	4f	4a	.
.	.	4d	4f	.
=28	=28	=28	=28	=28
0r	2c	4e	1g	1cc
.	.	4f	.	.
.	2e	1g	.	.
.	2d	.	1a	1dd
.	2d	2f#	.	.
=29	=29	=29	=29	=29
2r	2G	1g	1b	2.dd
2G	2.g	.	.	.
.	.	.	.	4dd
2C	.	2r	1r	2ee
.	4f	.	.	.
[2c	2e	2g	.	2cc
=30	=30	=30	=30	=30
4c]	2d	2G	1g	1dd
4B	.	.	.	.
2B	2d	2.g	.	.
2A	4e	.	2c	1r
.	4d	4f	.	.
2A	4c	2f	[2cc	.
.	4d	.	.	.
=31	=31	=31	=31	=31
1G	4e	2e	4cc]	1r
.	4f#	.	4b	.
.	1g	2d	2b	.
1D	.	1d	2.a	2r
.	2f#	.	.	2dd
.	.	.	4b	.
=32	=32	=32	=32	=32
1C	1e	2r	2cc	2g
.	.	2G	2cc	2.gg
1D	2r	1d	2.a	.
.	.	.	.	4ff
.	2d	.	.	2ff
.	.	.	4b	.
=33	=33	=33	=33	=33
1C	2G	2.e	1cc	4ee
.	.	.	.	4cc
.	2.g	.	.	2.ee
.	.	4e	.	.
1D	.	1A	2r	.
.	4f	.	.	4dd
.	2f	.	[2a	[2dd
=34	=34	=34	=34	=34
1.A	1.e	1r	4a]	2dd]
.	.	.	4a	.
.	.	.	2a	4cc#
.	.	.	.	4b
.	.	2.A	2a	2cc#
2A	2e	.	2a	2cc#
.	.	4A	.	.
=35	=35	=35	=35	=35
[0D	[0d	[0A	[0f#	[0dd
=36	=36	=36	=36	=36
0D]	0d]	0A]	0f#]	0dd]
!! Genitum
*Ibass	*Itenor	*Itenor	*Icalto	*Icant
!Bassus	!Tenor 2	!Tenor 1	!Altus	!Cantus
*clefF4	*clefGv2	*clefGv2	*clefG2	*clefG2
*k[]	*k[]	*k[]	*k[]	*k[]
*G:mix	*G:mix	*G:mix	*G:mix	*G:mix
*M4/2	*M4/2	*M4/2	*M4/2	*M4/2
=37	=37	=37	=37	=37
1.G	1r	0r	0r	0r
.	[1d	.	.	.
2G	.	.	.	.
=38	=38	=38	=38	=38
2F	2d]	0r	0r	0r
2D	2d	.	.	.
[1F	2c	.	.	.
.	2A	.	.	.
=39	=39	=39	=39	=39
2F]	2.c	0r	2r	0r
4E	.	.	1g	.
4D	4B	.	.	.
1E	1c	.	.	.
.	.	.	2g	.
=40	=40	=40	=40	=40
0D	2.d	1r	2f	0r
.	.	.	2d	.
.	8c	.	.	.
.	8B	.	.	.
.	[1A	[1d	2.f	.
.	.	.	4e	.
=41	=41	=41	=41	=41
1D	1A]	2d]	1f	0r
.	.	2d	.	.
2E	2r	2c	2g	.
[2F	2c	2A	[2a	.
=42	=42	=42	=42	=42
4F]	2A	2.c	4a]	0r
4E	.	.	4g	.
4F	2.a	.	2f	.
4G	.	4B	.	.
2A	.	2c	2e	.
.	4g	.	.	.
2D	[2f	[2d	4d	.
.	.	.	4e	.
=43	=43	=43	=43	=43
1D	4f]	4d]	4f	1.dd
.	4e	4c	4g	.
.	4d	4B	1a	.
.	4c	4A	.	.
1r	1d	1B	.	.
.	.	.	2g	2dd
=44	=44	=44	=44	=44
0r	2e	[0A	1.a	2cc
.	1f	.	.	2a
.	.	.	.	2.cc
.	4e	.	4g	.
.	4d	.	4f	4b
=45	=45	=45	=45	=45
0r	1a	1A]	1e	1cc
.	[1a	2r	[1f	2.dd
.	.	[2d	.	.
.	.	.	.	8cc
.	.	.	.	8b
=46	=46	=46	=46	=46
2r	1a]	2d]	2f]	1a
1A	.	2e	2c	.
.	2r	2f	1r	1r
2B	2d	2g	.	.
=47	=47	=47	=47	=47
2c	2e	2.a	0r	0r
2d	2f	.	.	.
.	.	8g	.	.
.	.	8f	.	.
2c	2g	2e	.	.
2A	2f	2a	.	.
=48	=48	=48	=48	=48
1c	2e	2g	1r	0r
.	2.e	1a	.	.
1B	.	.	1d	.
.	4d	.	.	.
.	[2d	2g#	.	.
=49	=49	=49	=49	=49
1A	2d]	1a	1e	2r
.	2c#	.	.	1a
1r	1d	2r	1f	.
.	.	2d	.	2b
=50	=50	=50	=50	=50
0r	0r	2e	2g	2cc
.	.	2.f	1a	2dd
.	.	.	.	1cc
.	.	4f	.	.
.	.	2c	2e	.
=51	=51	=51	=51	=51
0r	0r	2d	2f	1a
.	.	4c	4e	.
.	.	4B	4d	.
.	.	4A	2.e	1cc
.	.	4B	.	.
.	.	4c	.	.
.	.	4d	4f#	.
=52	=52	=52	=52	=52
0r	1r	4e	1g	1b
.	.	4f#	.	.
.	.	1g	.	.
.	2r	.	1d	1a
.	[2d	2f#	.	.
=53	=53	=53	=53	=53
1.G	2d]	1g	2.B	0r
.	2d	.	.	.
.	.	.	4c	.
.	2G	2r	1d	.
2G	2B	[2g	.	.
=54	=54	=54	=54	=54
2.C	2c	2g]	1e	0r
.	2.e	2g	.	.
4D	.	.	.	.
2E	.	1c	1r	.
.	4d	.	.	.
[2F	4c	.	.	.
.	4B	.	.	.
=55	=55	=55	=55	=55
2F]	4A	2d	0r	1r
.	4B	.	.	.
2E	1c	2e	.	.
[1D	.	[1f	.	[1dd
.	4B	.	.	.
.	4A	.	.	.
=56	=56	=56	=56	=56
1D]	2B	2f]	1r	2dd]
.	2B	2d	.	2dd
1C	2c	1e	2r	2.g
.	[2e	.	[2g	.
.	.	.	.	4a
=57	=57	=57	=57	=57
0r	4e]	0r	2g]	2b
.	4d	.	.	.
.	4c	.	2g	1cc
.	4B	.	.	.
.	2A	.	2c	.
.	2B	.	2d	2b
=58	=58	=58	=58	=58
1r	4c	0r	2e	1a
.	4A	.	.	.
.	1d	.	1f	.
1G	.	.	.	1g
.	[2c	.	2e	.
=59	=59	=59	=59	=59
1G	2c]	2r	1d	2r
.	2B	1d	.	2.gg
1D	1A	.	2.a	.
.	.	.	.	4ff
.	.	2d	.	2ff
.	.	.	4a	.
=60	=60	=60	=60	=60
2E	2r	2G	2g	2ee
2F	1d	2A	4f	2.dd
.	.	.	4e	.
2G	.	2B	2d	.
.	.	.	.	4dd
2C	4c	[2c	2e	2ee
.	4B	.	.	.
=61	=61	=61	=61	=61
0D	2A	2c]	2f#	1dd
.	2.d	2B	1g	.
.	.	1A	.	1dd
.	4c	.	.	.
.	2A	.	2f#	.
=62	=62	=62	=62	=62
[0G	[0B	[0G	[0g	[0dd
=63	=63	=63	=63	=63
0G]	0B]	0G]	0g]	0dd]
!! Et incarnatus
*Ibass	*Itenor	*Itenor	*Icalto	*Icant
!Bassus	!Tenor 2	!Tenor 1	!Altus	!Cantus
*clefF4	*clefGv2	*clefGv2	*clefG2	*clefG2
*k[]	*k[]	*k[]	*k[]	*k[]
*G:mix	*G:mix	*G:mix	*G:mix	*G:mix
*M4/2	*M4/2	*M4/2	*M4/2	*M4/2
=64	=64	=64	=64	=64
0G	0r	0g	0b-	0dd
=65	=65	=65	=65	=65
1d	0r	1f	1a	1dd
1B-	.	1d	1g	1dd
=66	=66	=66	=66	=66
1A	0r	1f	1a	2cc
.	.	.	.	1dd
1A	.	1e	[1a	.
.	.	.	.	2cc#
=67	=67	=67	=67	=67
1D	0d	2f#	2a]	0dd
.	.	2.g	2b-	.
1D	.	.	2a	.
.	.	8f	.	.
.	.	8e	.	.
.	.	2f	2b	.
=68	=68	=68	=68	=68
1E	1c	1g	2cc	2r
.	.	.	2g	2gg
1F	1A	1f	1a	2cc
.	.	.	.	2cc
=69	=69	=69	=69	=69
1C	1c	2e	1g	2ee
.	.	2c	.	2ee
2.G	1B	2d	[1g	1dd
.	.	2d	.	.
4F	.	.	.	.
=70	=70	=70	=70	=70
1E	1c	1e	2g]	1gg
.	.	.	2e	.
1D	[1d	2r	1a	1ff#
.	.	2A	.	.
=71	=71	=71	=71	=71
1G	1d]	1B	2r	1gg
.	.	.	2d	.
1C	1g	1c	2e	1ee
.	.	.	2e	.
=72	=72	=72	=72	=72
1D	1f#	1A	1a	0dd
1G	1g	1B-	1d	.
=73	=73	=73	=73	=73
1A	1e	1A	2.a	1cc#
.	.	.	4g	.
1B-	1d	1r	2f	1dd
.	.	.	4e	.
.	.	.	4d	.
=74	=74	=74	=74	=74
0A	2c#	2r	0a	2ee
.	2d	2.a	.	1dd
.	1e	.	.	.
.	.	4g	.	.
.	.	2e	.	2cc#
=75	=75	=75	=75	=75
2r	1d	2.f	0a	2dd
1d	.	.	.	1ff
.	.	4e	.	.
.	1r	2d	.	.
2c#	.	2A	.	2ee
=76	=76	=76	=76	=76
2d	2r	2r	1.a	1ff
2D	1f	1d	.	.
1r	.	.	.	2dd
.	2e	2c#	2a	[2ee
=77	=77	=77	=77	=77
2r	1f	1d	1a	4ee]
.	.	.	.	4dd
1D	.	.	.	1dd
.	2d	[1A	2a	.
2A	[2e	.	[2a	2cc#
=78	=78	=78	=78	=78
2F#	4e]	2A]	2a]	1dd
.	4d	.	.	.
2G	1d	1B-	2g	.
2E	.	.	1g	2r
2E	2c#	2G	.	[2gg
=79	=79	=79	=79	=79
1D	1d	1A	2r	2gg]
.	.	.	2d	1ff
1C	2r	1c	1e	.
.	[2g	.	.	[2ee
=80	=80	=80	=80	=80
1D	2g]	1A	2a	2ee]
.	1f	.	2.a	1dd
1A	.	2A	.	.
.	.	.	4g	.
.	[2e	[2a	2e	2cc#
=81	=81	=81	=81	=81
1D	2e]	4a]	4f	1dd
.	.	4g	4g	.
.	1d	2f	4a	.
.	.	.	4b-	.
1A	.	1e	1a	1ee
.	2c#	.	.	.
=82	=82	=82	=82	=82
[0D	[0d	[0d	[0a	[0ff#
=83	=83	=83	=83	=83
0D]	0d]	0d]	0a]	0ff#]
!! Et resurrexit
*Ibass	*Itenor	*Itenor	*Icalto	*Icant
!Bassus	!Tenor 2	!Tenor 1	!Altus	!Cantus
*clefF4	*clefGv2	*clefGv2	*clefG2	*clefG2
*k[]	*k[]	*k[]	*k[]	*k[]
*G:mix	*G:mix	*G:mix	*G:mix	*G:mix
*M4/2	*M4/2	*M4/2	*M4/2	*M4/2
=84	=84	=84	=84	=84
0r	0r	0r	0g	1r
.	.	.	.	[1dd
=85	=85	=85	=85	=85
0r	0r	0r	1f	1dd]
.	.	.	1e	1cc
=86	=86	=86	=86	=86
0r	0r	0d	1d	1b
.	.	.	1f	1a
=87	=87	=87	=87	=87
0r	0g	1c	2g	1cc
.	.	.	2e	.
.	.	1B	2d	1dd
.	.	.	2d	.
=88	=88	=88	=88	=88
0r	1f	1A	1a	2r
.	.	.	.	2.cc
.	1e	1c	1g	.
.	.	.	.	4dd
.	.	.	.	2ee
=89	=89	=89	=89	=89
0d	1d	4d	2f	2.ff
.	.	4e	.	.
.	.	4f	2.a	.
.	.	4g	.	4ee
.	1f	2a	.	2dd
.	.	.	4g	.
.	.	2d	4a	2ff
.	.	.	4b	.
=90	=90	=90	=90	=90
1c	0g	2e	1cc	1ee
.	.	2c	.	.
1B	.	2.d	2r	1dd
.	.	.	2g	.
.	.	4e	.	.
=91	=91	=91	=91	=91
1A	0r	4f	2a	2.cc
.	.	4g	.	.
.	.	2.a	1cc	.
.	.	.	.	4dd
1c	.	.	.	1ee
.	.	4g	.	.
.	.	[2g	2b	.
=92	=92	=92	=92	=92
2.d	1r	2g]	1a	0dd
.	.	2f#	.	.
4c	.	.	.	.
4B	2.G	2.g	1g	.
4A	.	.	.	.
[2G	.	.	.	.
.	4A	8f	.	.
.	.	8e	.	.
=93	=93	=93	=93	=93
2G]	4B	1d	1r	1dd
.	4c	.	.	.
2F	2d	.	.	.
1E	2c	1r	1g	1ee
.	2B	.	.	.
=94	=94	=94	=94	=94
1D	1d	2r	1a	1ff#
.	.	1d	.	.
1G	1B	.	1b	2.gg
.	.	[2e	.	.
.	.	.	.	4ff
=95	=95	=95	=95	=95
1A	1r	2e]	1cc	4ee
.	.	.	.	4dd
.	.	2f#	.	4cc
.	.	.	.	8b
.	.	.	.	8a
1B	1d	2g	1r	2dd
.	.	[2g	.	2dd
=96	=96	=96	=96	=96
2.c	1e	4g]	0r	1g
.	.	4f	.	.
.	.	4e	.	.
4B	.	4d	.	.
1A	1f#	4c	.	1a
.	.	4B	.	.
.	.	2c	.	.
=97	=97	=97	=97	=97
1G	1g	1d	1r	1b
1A	2f	1r	2.a	1cc#
.	[2e	.	.	.
.	.	.	4g	.
=98	=98	=98	=98	=98
1B-	4e]	1r	2f	1dd
.	4d	.	.	.
.	1d	.	2d	.
1A	.	2r	1a	1ee
.	2c#	2a	.	.
=99	=99	=99	=99	=99
[0D	1d	1a	2r	0ff#
.	.	.	2a	.
.	2r	1d	1a	.
.	2d	.	.	.
=100	=100	=100	=100	=100
1D]	1d	1f#	2d	2r
.	.	.	2a	2dd
1r	1G	2.g	1b	1dd
.	.	4f	.	.
=101	=101	=101	=101	=101
0r	2.c	4e	1cc	1g
.	.	4d	.	.
.	.	2e	.	.
.	4B	.	.	.
.	4A	4c	1r	1cc
.	4B	4d	.	.
.	4c	4e	.	.
.	4d	4f	.	.
=102	=102	=102	=102	=102
2r	2e	1g	1r	2.b
2G	4d	.	.	.
.	4c	.	.	4a
1G	2d	1r	1g	1b
.	[2g	.	.	.
=103	=103	=103	=103	=103
1D	2g]	1d	1a	2a
.	2f#	.	.	2dd
2.G	2g	1d	[1b	2dd
.	2d	.	.	2g
4F	.	.	.	.
=104	=104	=104	=104	=104
4E	1e	1G	1b]	4gg
4D	.	.	.	4ff
2E	.	.	.	4ee
.	.	.	.	4dd
4C	1g	1c	1cc	1ee
4D	.	.	.	.
4E	.	.	.	.
4F	.	.	.	.
=105	=105	=105	=105	=105
0G	2r	2.B	4g	[0dd
.	.	.	4a	.
.	2d	.	2.b	.
.	.	4A	.	.
.	4G	1B	.	.
.	4A	.	4a	.
.	4B	.	[2g	.
.	4c	.	.	.
=106	=106	=106	=106	=106
0D	0d	0A	2g]	0dd]
.	.	.	4f#	.
.	.	.	4e	.
.	.	.	1f#	.
=107	=107	=107	=107	=107
[0G	[0d	[0G	[0g	[0b
=108	=108	=108	=108	=108
0G]	0d]	0G]	0g]	0b]
!! Et iterum
*Ibass	*Itenor	*Itenor	*Icalto	*Icant
!Bassus	!Tenor 2	!Tenor 1	!Altus	!Cantus
*clefF4	*clefGv2	*clefGv2	*clefG2	*clefG2
*k[]	*k[]	*k[]	*k[]	*k[]
*G:mix	*G:mix	*G:mix	*G:mix	*G:mix
*M4/2	*M4/2	*M4/2	*M4/2	*M4/2
=109	=109	=109	=109	=109
0r	0r	0r	1r	1g
.	.	.	1d	2.dd
.	.	.	.	4dd
=110	=110	=110	=110	=110
0r	0r	0r	2.g	2dd
.	.	.	.	2ee
.	.	.	4g	.
.	.	.	2g	2dd
.	.	.	2a	2cc
=111	=111	=111	=111	=111
0r	0r	0r	2g	2b
.	.	.	2f	2dd
.	.	.	2e	2.gg
.	.	.	2g	.
.	.	.	.	4ff
=112	=112	=112	=112	=112
0r	0r	1r	1.cc	4ee
.	.	.	.	4dd
.	.	.	.	2ee
.	.	1G	.	2dd
.	.	.	2b	[2gg
=113	=113	=113	=113	=113
1D	0r	2.d	1a	2gg]
.	.	.	.	2ff#
.	.	4d	.	.
2.G	.	2d	1b	2gg
.	.	2e	.	2g
4G	.	.	.	.
=114	=114	=114	=114	=114
2G	0r	2d	2r	2b
2A	.	2c	2e	2cc
2G	.	2B	2g	2.dd
2F	.	2d	2a	.
.	.	.	.	8cc
.	.	.	.	8dd
=115	=115	=115	=115	=115
2E	0r	2.g	1b	2ee
2G	.	.	.	2dd
.	.	4f	.	.
[1c	.	4e	2.cc	[1ee
.	.	4d	.	.
.	.	4c	.	.
.	.	4d	8b	.
.	.	.	8a	.
=116	=116	=116	=116	=116
2c]	0r	4e	1g	2ee]
.	.	4f#	.	.
2B	.	1g	.	2dd
1A	.	.	2a	2.cc
.	.	2f#	[2cc	.
.	.	.	.	4dd
=117	=117	=117	=117	=117
1G	2r	0g	2cc]	2ee
.	1d	.	2b	4dd
.	.	.	.	4cc
[1G	.	.	2.b	1dd
.	2B	.	.	.
.	.	.	4a	.
=118	=118	=118	=118	=118
2G]	2d	0r	1g	0r
2E	2c	.	.	.
2G	2B	.	1r	.
2F	[2c	.	.	.
=119	=119	=119	=119	=119
2E	4c]	1r	0r	0r
.	4B	.	.	.
1F	4A	.	.	.
.	4B	.	.	.
.	4c	2r	.	.
.	4d	.	.	.
4E	[2e	[2g	.	.
4D	.	.	.	.
=120	=120	=120	=120	=120
1E	4e]	2g]	0r	0r
.	4d	.	.	.
.	2c	2e	.	.
1E	2B	1g	.	.
.	[2c	.	.	.
=121	=121	=121	=121	=121
2D	2c]	1f	1r	0r
2D	2B	.	.	.
[1C	[1c	2e	2r	.
.	.	4e	[2g	.
.	.	4d	.	.
=122	=122	=122	=122	=122
1C]	1c]	4e	2g]	2r
.	.	4f#	.	.
.	.	2g	2e	1cc
1r	1r	2e	2g	.
.	.	2a	2f	2a
=123	=123	=123	=123	=123
0r	1r	2a	1e	2cc
.	.	2g#	.	2b
.	2r	1a	1f	1a
.	2d	.	.	.
=124	=124	=124	=124	=124
0r	2G	2r	1e	2b
.	2A	2a	.	2cc
.	1B	[1g	1d	4dd
.	.	.	.	4cc
.	.	.	.	4b
.	.	.	.	4a
=125	=125	=125	=125	=125
0r	1c	2g]	1e	2g
.	.	2g	.	1cc
.	1G	[1g	1d	.
.	.	.	.	2b
=126	=126	=126	=126	=126
1r	1c	1g]	2c	2cc
.	.	.	1cc	1ee
1G	1r	2r	.	.
.	.	[2g	4b	4dd
.	.	.	4a	4cc
=127	=127	=127	=127	=127
1G	1r	2g]	2b	1dd
.	.	2g	2b	.
1C	1g	2e	1cc	1ee
.	.	[2e	.	.
=128	=128	=128	=128	=128
1E	1g	4e]	2b	1gg
.	.	4d	.	.
.	.	4c	2.cc	.
.	.	4B	.	.
1F	1c	[1A	.	[1ff
.	.	.	4b	.
.	.	.	2a	.
=129	=129	=129	=129	=129
1D	2d	2A]	2.f	2ff]
.	2f	2B	.	2dd
.	.	.	8e	.
.	.	.	8d	.
1C	2e	2.c	1g	1ee
.	2e	.	.	.
.	.	4B	.	.
=130	=130	=130	=130	=130
1D	2.d	4A	2f	2ff
.	.	4G	.	.
.	.	2F	2.a	2.dd
.	4c	.	.	.
1E	2B	1G	.	.
.	.	.	4g	4cc#
.	4A	.	[2g	4cc#
.	4G	.	.	8b
.	.	.	.	8cc#
=131	=131	=131	=131	=131
0D	0A	0d	2g]	0dd
.	.	.	4f#	.
.	.	.	4e	.
.	.	.	1f#	.
=132	=132	=132	=132	=132
[0G	[0G	[0d	[0g	[0b
=133	=133	=133	=133	=133
0G]	0G]	0d]	0g]	0b]
!! Qui cum Patre
*Ibass	*Itenor	*Itenor	*Icalto	*Icant
!Bassus	!Tenor 2	!Tenor 1	!Altus	!Cantus
*clefF4	*clefGv2	*clefGv2	*clefG2	*clefG2
*k[]	*k[]	*k[]	*k[]	*k[]
*G:mix	*G:mix	*G:mix	*G:mix	*G:mix
*M4/2	*M4/2	*M4/2	*M4/2	*M4/2
=134	=134	=134	=134	=134
1G	0r	0r	0r	0r
1B	.	.	.	.
=135	=135	=135	=135	=135
0c	0r	0r	1c	0r
.	.	.	1e	.
=136	=136	=136	=136	=136
2.d	1r	0r	1f	0r
4c	.	.	.	.
4B	1G	.	1g	.
4A	.	.	.	.
4G	.	.	.	.
4F	.	.	.	.
=137	=137	=137	=137	=137
2E	1B	0r	1g	0r
2G	.	.	.	.
2F	1c	.	1a	.
2A	.	.	.	.
=138	=138	=138	=138	=138
2.G	1d	2r	1.b	0r
.	.	2G	.	.
4F#	.	.	.	.
1G	1d	1B	.	.
.	.	.	2g	.
=139	=139	=139	=139	=139
1C	1e	1c	2g	0r
.	.	.	1cc	.
1r	1f	1d	.	.
.	.	.	4b	.
.	.	.	4a	.
=140	=140	=140	=140	=140
1G	1.g	1d	1b	0r
2.c	.	1e	2cc	.
.	2c	.	2g	.
4B	.	.	.	.
=141	=141	=141	=141	=141
4A	1c	1f	4a	0r
4G	.	.	4b	.
2A	.	.	4cc	.
.	.	.	4a	.
2.G	1d	[1g	[1b	.
4A	.	.	.	.
=142	=142	=142	=142	=142
4B	1G	2g]	1b]	0r
4c	.	.	.	.
1d	.	2f	.	.
.	1A	1e	1a	.
2c#	.	.	.	.
=143	=143	=143	=143	=143
1d	2r	1d	2r	2r
.	1d	.	1a	1dd
1r	.	1r	.	.
.	2e	.	2g	2cc
=144	=144	=144	=144	=144
1r	2f	1r	2a	2dd
.	2g	.	2b	2ee
2r	2.a	2r	2cc	[1ff
[2D	.	[2d	4f	.
.	4g	.	4g	.
=145	=145	=145	=145	=145
2D]	4f	2d]	4a	2ff]
.	4d	.	4b	.
2E	2g	2c	2cc	2.ee
2F	2f	2.d	2a	.
.	.	.	.	4dd
2G	2d	.	2b-	[2dd
.	.	4e	.	.
=146	=146	=146	=146	=146
2.A	2r	2f	1.a	2dd]
.	1A	2.e	.	2cc#
4G	.	.	.	.
2F	.	.	.	1dd
.	.	4d	.	.
2G	2B	[2d	4g	.
.	.	.	4f	.
=147	=147	=147	=147	=147
1E	1G	2d]	1g	1r
.	.	2c#	.	.
1D	1A	2d	2f#	1dd
.	.	2d	2a	.
=148	=148	=148	=148	=148
0r	1r	2e	2g	1cc
.	.	2.f	2.a	.
.	2r	.	.	2dd
.	.	4d	4b	.
.	2c	2g	2cc	2ee
=149	=149	=149	=149	=149
0r	2d	2f	2a	2ff
.	2e	2e	2g	2gg
.	2f	2d	[1a	2ff
.	2c	2e	.	[2ee
=150	=150	=150	=150	=150
0r	1d	2.f	1a]	4ee]
.	.	.	.	4dd
.	.	.	.	1dd
.	.	4d	.	.
.	1A	1e	1a	.
.	.	.	.	2cc#
=151	=151	=151	=151	=151
0r	0r	2d	2r	2dd
.	.	1g	1b	1dd
.	.	2c	2cc	2ee
=152	=152	=152	=152	=152
0r	0r	2G	2b	2dd
.	.	2A	2a	2cc
.	.	2e	2g	2b
.	.	8A	2a	2cc
.	.	8B	.	.
.	.	8c	.	.
.	.	8d	.	.
=153	=153	=153	=153	=153
0r	0r	2e	2g	2b
.	.	2c	2.a	2.cc
.	.	1e	.	.
.	.	.	4g	4b
.	.	.	[2g	4b
.	.	.	.	8a
.	.	.	.	8g
=154	=154	=154	=154	=154
0r	2r	1d	2g]	1a
.	1d	.	2f#	.
.	.	2.G	[1g	1b
.	2e	.	.	.
.	.	4A	.	.
=155	=155	=155	=155	=155
1r	2d	2B	1g]	2dd
.	2c	2c	.	2ee
[1G	1B	2G	[1b	2.dd
.	.	[2d	.	.
.	.	.	.	4cc
=156	=156	=156	=156	=156
2G]	2.G	2d]	2b]	2b
2C	.	2e	2cc	1gg
.	4A	.	.	.
2G	2B	2d	2b	.
2A	2e	2c	2a	2ee
=157	=157	=157	=157	=157
1E	2.e	1.B	1g	0ee
.	4f#	.	.	.
2E	2g	.	1g	.
2C	[2G	[2c	.	.
=158	=158	=158	=158	=158
1G	2G]	4c]	2g	0dd
.	.	4B	.	.
.	2d	4B	2.g	.
.	.	8A	.	.
.	.	8G	.	.
1D	1d	1A	.	.
.	.	.	8f#	.
.	.	.	8e	.
.	.	.	2f#	.
=159	=159	=159	=159	=159
[0G	[0d	[0G	[0g	[0b
=160	=160	=160	=160	=160
0G]	0d]	0G]	0g]	0b]
!! Confiteor
*Ibass	*Itenor	*Itenor	*Icalto	*Icant
!Bassus	!Tenor 2	!Tenor 1	!Altus	!Cantus
*clefF4	*clefGv2	*clefGv2	*clefG2	*clefG2
*k[]	*k[]	*k[]	*k[]	*k[]
*G:mix	*G:mix	*G:mix	*G:mix	*G:mix
*M4/2	*M4/2	*M4/2	*M4/2	*M4/2
=161	=161	=161	=161	=161
1d	1f	0r	2r	0r
.	.	.	1a	.
2.c	2.e	.	.	.
.	.	.	[2g	.
4B	4d	.	.	.
=162	=162	=162	=162	=162
2c	2e	1r	2g]	1r
2A	2c	.	2f#	.
1G	1d	2r	2g	2r
.	.	2g	2b	[2dd
=163	=163	=163	=163	=163
0r	0r	2.f	2.a	2dd]
.	.	.	.	1cc
.	.	4e	4g	.
.	.	2f	2a	.
.	.	2d	2f	2b
=164	=164	=164	=164	=164
0r	2r	1.c	2g	0cc
.	2c	.	2e	.
.	2e	.	2g	.
.	2f	2A	2a	.
=165	=165	=165	=165	=165
0r	0e	2.c	1g	2r
.	.	.	.	2g
.	.	8B	.	.
.	.	8A	.	.
.	.	2G	2g	2b
.	.	2A	2c	2cc
=166	=166	=166	=166	=166
0r	0d	2.B	2G	1b
.	.	.	1g	.
.	.	4c	.	.
.	.	1d	.	1a
.	.	.	2f#	.
=167	=167	=167	=167	=167
1r	2r	2B	1g	0g
.	1G	2d	.	.
1C	.	2e	2r	.
.	[2c	[2e	2g	.
=168	=168	=168	=168	=168
1F	2c]	2e]	2a	0r
.	2A	2d	1a	.
1E	2B	1e	.	.
.	2c	.	2g	.
=169	=169	=169	=169	=169
1F	4d	1A	2f	1r
.	4c	.	.	.
.	1c	.	2e	.
1G	.	1r	1d	1g
.	2B	.	.	.
=170	=170	=170	=170	=170
1A	2e	0r	2c	1cc
.	2f#	.	2c	.
1G	2.g	.	2d	1b
.	.	.	[2e	.
.	4f	.	.	.
=171	=171	=171	=171	=171
1.c	1e	1r	2e]	1cc
.	.	.	2c	.
.	1d	1G	1g	1dd
2B	.	.	.	.
=172	=172	=172	=172	=172
1A	1r	1c	2r	1.ee
.	.	.	2c	.
1G	2r	1B	[1g	.
.	[2G	.	.	2dd
=173	=173	=173	=173	=173
1C	2G]	1c	2g]	[0gg
.	1c	.	2e	.
1G	.	1d	2d	.
.	2B	.	2G	.
=174	=174	=174	=174	=174
2C	1c	1e	2g	1gg]
1c	.	.	2e	.
.	1d	1d	2a	1ff
2B	.	.	2d	.
=175	=175	=175	=175	=175
2c	2e	1.g	2r	1ee
2C	2c	.	2e	.
2D	1A	.	1a	[1dd
2D	.	2f	.	.
=176	=176	=176	=176	=176
0A	2A	0e	0a	2dd]
.	2.a	.	.	4cc#
.	.	.	.	4b
.	.	.	.	1cc#
.	4g	.	.	.
.	2e	.	.	.
=177	=177	=177	=177	=177
[0D	[0f#	[0d	[0a	[0dd
=178	=178	=178	=178	=178
0D]	0f#]	0d]	0a]	0dd]
!! Et vitam
*Ibass	*Itenor	*Itenor	*Icalto	*Icant
!Bassus	!Tenor 2	!Tenor 1	!Altus	!Cantus
*clefF4	*clefGv2	*clefGv2	*clefG2	*clefG2
*k[]	*k[]	*k[]	*k[]	*k[]
*G:mix	*G:mix	*G:mix	*G:mix	*G:mix
*M4/2	*M4/2	*M4/2	*M4/2	*M4/2
=179	=179	=179	=179	=179
1r	1d	0G	1r	1r
[1G	2.B	.	[1g	1dd
.	4c	.	.	.
=180	=180	=180	=180	=180
1G]	1.d	0B	1g]	2.b
.	.	.	.	4cc
1G	.	.	1g	1dd
.	2G	.	.	.
=181	=181	=181	=181	=181
1C	2.g	0c	2.e	1cc
.	4f	.	4f	.
[1c	4e	.	[1g	1ee
.	4d	.	.	.
.	2c	.	.	.
=182	=182	=182	=182	=182
2c]	1G	0d	1g]	0dd
4B	.	.	.	.
4A	.	.	.	.
1B	1G	.	1g	.
=183	=183	=183	=183	=183
1c	1r	0e	0g	0cc
1C	[1c	.	.	.
=184	=184	=184	=184	=184
0G	2c]	0d	0g	0dd
.	4B	.	.	.
.	4A	.	.	.
.	1B	.	.	.
=185	=185	=185	=185	=185
2.C	4c	0c	2.g	1.ee
.	4d	.	.	.
.	4e	.	.	.
4D	4f	.	4f	.
2E	2g	.	2e	.
2F	4f	.	2a	2a
.	4e	.	.	.
=186	=186	=186	=186	=186
1.G	2d	0B	2.g	2.b
.	2d	.	.	.
.	.	.	8f	4cc
.	.	.	8e	.
.	4G	.	4d	[1dd
.	4A	.	4G	.
2G	4B	.	[2g	.
.	4c	.	.	.
=187	=187	=187	=187	=187
0D	1.d	0A	2g]	0dd]
.	.	.	4f#	.
.	.	.	4e	.
.	.	.	1f#	.
.	2d	.	.	.
=188	=188	=188	=188	=188
[0G	[0d	[0G	[0g	[0b
=189	=189	=189	=189	=189
0G]	0d]	0G]	0g]	0b]
=190	=190	=190	=190	=190
2r	0r	1G	0r	0r
2.G	.	.	.	.
.	.	1d	.	.
8F#	.	.	.	.
8E	.	.	.	.
2F#	.	.	.	.
=191	=191	=191	=191	=191
2G	0r	1B	2r	0r
2E	.	.	2.g	.
1D	.	1d	.	.
.	.	.	8f#	.
.	.	.	8e	.
.	.	.	2f#	.
=192	=192	=192	=192	=192
1C	2r	1e	2g	1g
.	2.g	.	2cc	.
1r	.	1d	2b	1dd
.	8f#	.	.	.
.	8e	.	.	.
.	2f#	.	2a	.
=193	=193	=193	=193	=193
0r	2g	2r	1g	1b
.	2e	2.g	.	.
.	1d	.	2.a	1dd
.	.	8f#	.	.
.	.	8e	.	.
.	.	2f#	.	.
.	.	.	4b	.
=194	=194	=194	=194	=194
2r	1c	1.g	1cc	1ee
2.c	.	.	.	.
.	1G	.	2r	1dd
8B	.	.	.	.
8A	.	.	.	.
2B	.	2d	[2g	.
=195	=195	=195	=195	=195
2c	2r	1e	2g]	1cc
2C	2.g	.	2e	.
1D	.	[1d	2a	1a
.	8f#	.	.	.
.	8e	.	.	.
.	2f#	.	2d	.
=196	=196	=196	=196	=196
1G	2g	1d]	2r	1b
.	2G	.	2.g	.
1r	2.d	2r	.	1a
.	.	.	8f#	.
.	.	.	8e	.
.	.	[2d	2f#	.
.	4c	.	.	.
=197	=197	=197	=197	=197
2r	2B	4d]	1g	[0g
.	.	4B	.	.
2.c	2c	2e	.	.
.	1G	1d	1r	.
8B	.	.	.	.
8A	.	.	.	.
2B	.	.	.	.
=198	=198	=198	=198	=198
2c	2r	1e	2r	1g_
4C	1e	.	2.cc	.
4D	.	.	.	.
4E	.	2.g	.	1g_
4F#	.	.	8b	.
.	.	.	8a	.
2G	2d	.	2b	.
.	.	4f	.	.
=199	=199	=199	=199	=199
1C	1c	0e	1cc	0g]
2.E	2.G	.	1b	.
4F#	4A	.	.	.
=200	=200	=200	=200	=200
[0G	[0B	[0d	[0b	[0g
=201	=201	=201	=201	=201
0G]	0B]	0d]	0b]	0g]
==	==	==	==	==
*-	*-	*-	*-	*-
!!!CDT: 1525/^1526/-1594/2/2
!!!OCY: Italia
!!!AGN: Mass (Paraphrase)
!!!AST: renaissance, vocal
!!!ASW: Gregorian Mass
!!!PWK: Masses, Book Mantuan I
!!!RNB: Cadence finals: D
!!!YOR: Le Opere Complete, v. 18, p. 83
!!!YOO: Rome, Italy: Fratelli Scalera
!!!END: 1992//
!!!EED: John Miller
!!!YEC: Copyright 2000, John Miller
!!!YEN: United States of America
!!!YEM: Rights to all derivative electronic formats reserved.
!!!YEM: Refer to licensing agreement for further details.
!!!YEM: This file must be accompanied by the licensing agreement.
!!!YEM: A copy of the licensing agreement may be found at http://www.music-cog.ohio-state.edu/HumdrumDatabases/Palestrina/license.txt
!!!EMD: converted to Humdrum by Bret Aarden
